X: 24938
T: Maid Behind The Bar, The
R: reel
M: 4/4
K: Dmajor
A2 A2 A2A|:FAAB AFED|FAAB ABde|fBBc dede|fBBA BcdA|
FAAB AFED|FAAB ABde|fBBA BcdB|1 AFEF FD2F:|2 AFEF D4||
|:faab afed|fdad fd d2|efga beef|gebe gfeg|
fgaf bfaf|defd e2 de|fBBA BcdB|AFEF D4:|

